X: 145
T:Mire Breathnach's
M:C|
L:1/8
C:Mire Breathnach
R:reel
D:Solas: Sunny Spells and Scattered Showers
Z:Devin McCabe
K:ADor
AB | c2Bc AGED | CDEF GABd | c2Bc AGEF | GEDB, A,2AB |
!c2Bc AGED | CDEF GABc | d~B3 BcBA |1 GEDB, A,2AB :|2 GEDB, A,3B |
K:AMix
!:c3B ABcd | eAce g2gf | ea (3aaa agef | fedB BAAB |
!c3B ABcd | eAce ~g3a | baga agef | fedB BAAB :|
